src/assets/icons/email.svg

<svg xmlns="http://www.w3.org/2000/svg" fill="none" viewBox="0 0 18 14"><path fill="#000" d="M17.297 8.24805c.3884 0 .7032-.31479.7032-.70313V2.93945c0-1.55081-1.2617-2.812497-2.8125-2.812497H2.81266C1.26185.126953.00016022 1.38864.00016022 2.93945v8.12105c0 1.5509 1.26168978 2.8125 2.81249978 2.8125H15.1877c1.5508 0 2.8125-1.2616 2.8125-2.8125 0-.3883-.3148-.7031-.7032-.7031-.3883 0-.7031.3148-.7031.7031 0 .7755-.6308 1.4063-1.4062 1.4063H2.81266c-.77541 0-1.40625-.6308-1.40625-1.4063V3.08845L7.51498 6.8869c.45806.2848.97162.42722 1.48518.42722.51356 0 1.02714-.14242 1.48514-.42722l6.1086-3.79845v4.45647c0 .38834.3148.70313.7031.70313zM9.74273 5.69268c-.45801.2848-1.02712.28484-1.48514 0L1.99313 1.7973c.23091-.16615.51399-.2641.81953-.2641H15.1877c.3055 0 .5886.09798.8195.26413L9.74273 5.69268z"/></svg>

<svg width="18" height="14" viewBox="0 0 18 14" fill="none" xmlns="http://www.w3.org/2000/svg">
<path d="M17.297 8.24805C17.6854 8.24805 18.0002 7.93326 18.0002 7.54492V2.93945C18.0002 1.38864 16.7385 0.126953 15.1877 0.126953H2.81266C1.26185 0.126953 0.000160217 1.38864 0.000160217 2.93945V11.0605C0.000160217 12.6114 1.26185 13.873 2.81266 13.873H15.1877C16.7385 13.873 18.0002 12.6114 18.0002 11.0605C18.0002 10.6722 17.6854 10.3574 17.297 10.3574C16.9087 10.3574 16.5939 10.6722 16.5939 11.0605C16.5939 11.836 15.9631 12.4668 15.1877 12.4668H2.81266C2.03725 12.4668 1.40641 11.836 1.40641 11.0605V3.08845L7.51498 6.8869C7.97304 7.1717 8.4866 7.31412 9.00016 7.31412C9.51372 7.31412 10.0273 7.1717 10.4853 6.8869L16.5939 3.08845V7.54492C16.5939 7.93326 16.9087 8.24805 17.297 8.24805ZM9.74273 5.69268C9.28472 5.97748 8.71561 5.97752 8.25759 5.69268L1.99313 1.7973C2.22404 1.63115 2.50712 1.5332 2.81266 1.5332H15.1877C15.4932 1.5332 15.7763 1.63118 16.0072 1.79733L9.74273 5.69268Z" fill="black"/>
</svg>
